X:12
T:Carol for Twelfth Day
M:2/2
L:1/8
C:Traditional: cornish
K:G
||G4A2A2|B6d2|d3ed2B2|B4A4|
|B2A2d2A2|B3cd2G2|F4E4|D8|
|G6D2|E6c2|B2E2cBAG|G4FED2|
|G4A4|B3cd2d2|c2B2A4|G8|
|d2d2B2B2|G2G2E4|c2cB<A2AG<|F2E2D4|
|G2G2E2E2|A2B2c4|B2Bc<de<c2|B2A2G2G2|
|BAGFE2E2|c2d2e2d2|d2B2e2c2|B2A2G4|]

